X: 21620
T: Killavil Postman, The
R: barndance
M: 4/4
K: Gmajor
M:2/4
|dg g>e|d/e/d/c/ B/A/G/E/|DG GA|B2 B>c|
dg g>e|d/e/d/c/ B/A/G/c/|Aa ab|a2 ag/f/|
gb g>e|d/e/d/c/ B/A/G/E/|DG GA|B2 Bg/f/|
ee/B/ c/B/A|d/e/d/c/ B/A/G/E/|DG GA|G2 Gg/a/||
b-b/f/ g/f/e|b-b/f/ g/f/e|bb- bc'|b4|
a a/f/ g/f/e|a a/f/ g/f/e|aa- ab|f4|
b b/f/ g/f/e|b b/f/ g/f/e|bb- bc'|b2 g>a|
bb aa|gg f2|a>g f/g/a/g/|f/a/e/a/ dB/c/|

